file/cnn.svg

<svg clip-rule="evenodd" fill-rule="evenodd" stroke-linejoin="round" stroke-miterlimit="1.41421" viewBox="0 0 560 400" xmlns="http://www.w3.org/2000/svg"><g fill-rule="nonzero" transform="matrix(.36 0 0 .36 100 116.368)"><path d="m75.814 232.456c0 85.224 69.334 154.558 154.558 154.558h144.366c9.066 0 16.098-8.618 16.098-16.04v-283.229c0-17.892 14.557-32.453 32.444-32.453 11.476 0 22.17 6.084 27.902 15.886.718 1.234 44.427 76.589 90.698 156.377 44.211 76.241 89.934 155.077 90.652 156.315 2.314 3.945 6.836 6.491 11.53 6.491 7.434 0 13.485-6.047 13.485-13.485v-289.131c0-17.892 14.549-32.453 32.445-32.453 11.475 0 22.17 6.084 27.897 15.886.727 1.234 44.398 76.589 90.64 156.381 44.17 76.224 89.851 155.04 90.586 156.311 2.313 3.945 6.836 6.491 11.529 6.491 7.435 0 13.477-6.047 13.477-13.485v-374.853h-56.903v223.131s-103.103-177.463-106.443-183.169c-15.051-25.729-43.592-41.985-73.968-41.985-47.584 0-86.172 38.604-86.172 86.184v138.97s-103.099-177.463-106.442-183.169c-15.052-25.729-43.593-41.985-73.969-41.985-47.584 0-86.171 38.604-86.171 86.184v228.356c.029 8.311-6.218 15.554-15.313 15.57h-87.758c-53.929 0-97.65-43.72-97.65-97.654s43.721-97.655 97.65-97.655h73.508v-56.903h-74.118c-85.224 0-154.558 69.334-154.558 154.558" fill="#c00"/><path d="m943.093 2.021v374.857c0 17.896-14.549 32.453-32.445 32.453-11.476 0-22.17-6.084-27.902-15.882-.718-1.233-44.398-76.593-90.631-156.381-44.178-76.22-89.847-155.044-90.595-156.31-2.305-3.946-6.836-6.496-11.529-6.496-7.434 0-13.477 6.047-13.477 13.481v289.135c0 17.896-14.557 32.453-32.449 32.453-11.476 0-22.162-6.084-27.902-15.882-.718-1.233-44.426-76.589-90.698-156.381-44.215-76.236-89.933-155.073-90.656-156.31-2.313-3.946-6.836-6.496-11.529-6.496-7.435 0-13.478 6.047-13.478 13.481v283.233c0 18.648-16.384 35.008-35.061 35.008h-144.366c-95.682 0-173.53-77.84-173.53-173.53 0-95.682 77.848-173.526 173.53-173.526h74.114v-56.907h-74.048c-127.267 0-230.441 103.166-230.441 230.433 0 127.271 103.174 230.442 230.441 230.442h145.749c55.213.029 90.719-32.321 90.644-91.99v-131.437s103.839 178.725 106.447 183.173c15.052 25.725 43.593 41.981 73.969 41.981 47.588 0 86.167-38.604 86.167-86.179v-138.975s103.104 177.467 106.443 183.173c15.056 25.725 43.596 41.981 73.973 41.981 47.584 0 86.167-38.604 86.167-86.179v-376.423z" fill="#c00"/><path d="m56.847 232.456c0 95.686 77.844 173.53 173.526 173.53h144.365c18.677 0 35.066-16.36 35.066-35.012v-283.229c0-7.434 6.043-13.481 13.477-13.481 4.693 0 9.216 2.546 11.53 6.491.718 1.242 46.441 80.078 90.656 156.315 46.271 79.788 89.975 155.144 90.698 156.381 5.736 9.798 16.422 15.878 27.897 15.878 17.897 0 32.454-14.557 32.454-32.453v-289.131c0-7.434 6.043-13.481 13.477-13.481 4.693 0 9.22 2.546 11.529 6.491.744 1.271 46.417 80.091 90.594 156.311 46.234 79.787 89.909 155.148 90.632 156.385 5.731 9.798 16.422 15.878 27.897 15.878 17.896 0 32.449-14.557 32.449-32.453v-374.853h-18.972v374.853c0 7.438-6.043 13.485-13.477 13.485-4.693 0-9.216-2.546-11.529-6.491-.739-1.271-46.417-80.087-90.586-156.311-46.242-79.792-89.913-155.147-90.64-156.381-5.731-9.802-16.422-15.886-27.897-15.886-17.896 0-32.449 14.561-32.449 32.453v289.131c0 7.438-6.047 13.485-13.482 13.485-4.693 0-9.216-2.546-11.529-6.491-.719-1.238-46.441-80.074-90.657-156.315-46.271-79.788-89.975-155.143-90.698-156.377-5.731-9.802-16.421-15.886-27.897-15.886-17.892 0-32.445 14.561-32.445 32.453v283.229c0 7.422-7.031 16.04-16.098 16.04h-144.365c-85.225 0-154.558-69.334-154.558-154.558s69.333-154.558 154.558-154.558h74.114v-18.972h-74.114c-95.682 0-173.526 77.844-173.526 173.53" fill="#fff"/></g></svg>

<?xml version="1.0" encoding="UTF-8" standalone="no"?>
<!DOCTYPE svg PUBLIC "-//W3C//DTD SVG 1.1//EN" "http://www.w3.org/Graphics/SVG/1.1/DTD/svg11.dtd">
<svg width="100%" height="100%" viewBox="0 0 560 400" version="1.1" xmlns="http://www.w3.org/2000/svg" xmlns:xlink="http://www.w3.org/1999/xlink" xml:space="preserve" xmlns:serif="http://www.serif.com/" style="fill-rule:evenodd;clip-rule:evenodd;stroke-linejoin:round;stroke-miterlimit:1.41421;">
    <g transform="matrix(0.36,0,0,0.36,100,116.368)">
        <path d="M75.814,232.456C75.814,317.68 145.148,387.014 230.372,387.014L374.738,387.014C383.804,387.014 390.836,378.396 390.836,370.974L390.836,87.745C390.836,69.853 405.393,55.292 423.28,55.292C434.756,55.292 445.45,61.376 451.182,71.178C451.9,72.412 495.609,147.767 541.88,227.555C586.091,303.796 631.814,382.632 632.532,383.87C634.846,387.815 639.368,390.361 644.062,390.361C651.496,390.361 657.547,384.314 657.547,376.876L657.547,87.745C657.547,69.853 672.096,55.292 689.992,55.292C701.467,55.292 712.162,61.376 717.889,71.178C718.616,72.412 762.287,147.767 808.529,227.559C852.699,303.783 898.38,382.599 899.115,383.87C901.428,387.815 905.951,390.361 910.644,390.361C918.079,390.361 924.121,384.314 924.121,376.876L924.121,2.023L867.218,2.023L867.218,225.154C867.218,225.154 764.115,47.691 760.775,41.985C745.724,16.256 717.183,0 686.807,0C639.223,0 600.635,38.604 600.635,86.184L600.635,225.154C600.635,225.154 497.536,47.691 494.193,41.985C479.141,16.256 450.6,0 420.224,0C372.64,0 334.053,38.604 334.053,86.184L334.053,314.54C334.082,322.851 327.835,330.094 318.74,330.11L230.982,330.11C177.053,330.11 133.332,286.39 133.332,232.456C133.332,178.522 177.053,134.801 230.982,134.801L304.49,134.801L304.49,77.898L230.372,77.898C145.148,77.898 75.814,147.232 75.814,232.456" style="fill:rgb(204,0,0);fill-rule:nonzero;"/>
        <path d="M943.093,2.021L943.093,376.878C943.093,394.774 928.544,409.331 910.648,409.331C899.172,409.331 888.478,403.247 882.746,393.449C882.028,392.216 838.348,316.856 792.115,237.068C747.937,160.848 702.268,82.024 701.52,80.758C699.215,76.812 694.684,74.262 689.991,74.262C682.557,74.262 676.514,80.309 676.514,87.743L676.514,376.878C676.514,394.774 661.957,409.331 644.065,409.331C632.589,409.331 621.903,403.247 616.163,393.449C615.445,392.216 571.737,316.86 525.465,237.068C481.25,160.832 435.532,81.995 434.809,80.758C432.496,76.812 427.973,74.262 423.28,74.262C415.845,74.262 409.802,80.309 409.802,87.743L409.802,370.976C409.802,389.624 393.418,405.984 374.741,405.984L230.375,405.984C134.693,405.984 56.845,328.144 56.845,232.454C56.845,136.772 134.693,58.928 230.375,58.928L304.489,58.928L304.489,2.021L230.441,2.021C103.174,2.021 0,105.187 0,232.454C0,359.725 103.174,462.896 230.441,462.896L376.19,462.896C431.403,462.925 466.909,430.575 466.834,370.906L466.834,239.469C466.834,239.469 570.673,418.194 573.281,422.642C588.333,448.367 616.874,464.623 647.25,464.623C694.838,464.623 733.417,426.019 733.417,378.444L733.417,239.469C733.417,239.469 836.521,416.936 839.86,422.642C854.916,448.367 883.456,464.623 913.833,464.623C961.417,464.623 1000,426.019 1000,378.444L1000,2.021L943.093,2.021Z" style="fill:rgb(204,0,0);fill-rule:nonzero;"/>
        <path d="M56.847,232.456C56.847,328.142 134.691,405.986 230.373,405.986L374.738,405.986C393.415,405.986 409.804,389.626 409.804,370.974L409.804,87.745C409.804,80.311 415.847,74.264 423.281,74.264C427.974,74.264 432.497,76.81 434.811,80.755C435.529,81.997 481.252,160.833 525.467,237.07C571.738,316.858 615.442,392.214 616.165,393.451C621.901,403.249 632.587,409.329 644.062,409.329C661.959,409.329 676.516,394.772 676.516,376.876L676.516,87.745C676.516,80.311 682.559,74.264 689.993,74.264C694.686,74.264 699.213,76.81 701.522,80.755C702.266,82.026 747.939,160.846 792.116,237.066C838.35,316.853 882.025,392.214 882.748,393.451C888.479,403.249 899.17,409.329 910.645,409.329C928.541,409.329 943.094,394.772 943.094,376.876L943.094,2.023L924.122,2.023L924.122,376.876C924.122,384.314 918.079,390.361 910.645,390.361C905.952,390.361 901.429,387.815 899.116,383.87C898.377,382.599 852.699,303.783 808.53,227.559C762.288,147.767 718.617,72.412 717.89,71.178C712.159,61.376 701.468,55.292 689.993,55.292C672.097,55.292 657.544,69.853 657.544,87.745L657.544,376.876C657.544,384.314 651.497,390.361 644.062,390.361C639.369,390.361 634.846,387.815 632.533,383.87C631.814,382.632 586.092,303.796 541.876,227.555C495.605,147.767 451.901,72.412 451.178,71.178C445.447,61.376 434.757,55.292 423.281,55.292C405.389,55.292 390.836,69.853 390.836,87.745L390.836,370.974C390.836,378.396 383.805,387.014 374.738,387.014L230.373,387.014C145.148,387.014 75.815,317.68 75.815,232.456C75.815,147.232 145.148,77.898 230.373,77.898L304.487,77.898L304.487,58.926L230.373,58.926C134.691,58.926 56.847,136.77 56.847,232.456" style="fill:white;fill-rule:nonzero;"/>
    </g>
</svg>
